packages/icons/src/components/CategoryIcon/assets/organization-notifications.svg

<svg width="20" height="20" viewBox="0 0 20 20" fill="none" xmlns="http://www.w3.org/2000/svg">
<path d="M7.59961 9.88867C8.47957 9.88867 9.20013 10.5811 9.2002 11.4443C9.2002 12.3034 8.48327 13 7.59961 13C6.71613 12.9998 6 12.3033 6 11.4443C6.00006 10.5854 6.71617 9.88888 7.59961 9.88867ZM12.4004 9.88867C13.2802 9.88888 13.9999 10.5812 14 11.4443C14 12.3033 13.2839 12.9998 12.4004 13C11.5167 13 10.7998 12.3034 10.7998 11.4443C10.7999 10.5811 11.5124 9.88867 12.4004 9.88867ZM10.1006 6.00391C10.2874 6.92028 10.7255 7.74497 11.3389 8.4043C11.0533 8.82927 10.5611 9.11133 10 9.11133C9.11638 9.11133 8.40045 8.41472 8.40039 7.55566C8.40039 6.69233 9.112 6 10 6C10.0338 6 10.0673 6.00189 10.1006 6.00391Z" fill="#A060F6" className="fillStrong" />
<path d="M10 2C10.324 2 10.6432 2.02074 10.957 2.05859C10.5402 2.63057 10.2416 3.29409 10.0977 4.01367C10.0652 4.01315 10.0326 4.01172 10 4.01172C6.69742 4.01172 4.01172 6.69742 4.01172 10C4.01172 13.3016 6.69742 15.9883 10 15.9883C13.3026 15.9883 15.9883 13.3016 15.9883 10C15.9883 9.96705 15.9859 9.93419 15.9854 9.90137C16.7047 9.75755 17.3676 9.45948 17.9395 9.04297C17.9777 9.35682 18 9.67594 18 10C18 14.4189 14.4189 18 10 18C5.58215 18 2 14.4189 2 10C2 5.58215 5.58215 2 10 2ZM15 1C17.2 1 19 2.78 19 5C19 7.20914 17.2091 9 15 9C12.7909 9 11 7.20914 11 5C11 2.78 12.78 1 15 1ZM15.3389 3.05078C15.0898 2.94762 14.803 3.00478 14.6123 3.19531L13.9453 3.8623C13.6851 4.12267 13.685 4.54439 13.9453 4.80469C14.0755 4.93484 14.2464 5 14.417 5V6.33301C14.417 6.7011 14.715 6.99983 15.083 7C15.4512 7 15.75 6.7012 15.75 6.33301V3.66699C15.75 3.39749 15.5878 3.15406 15.3389 3.05078Z" fill="#521094" className="fill" />
</svg>

<svg xmlns="http://www.w3.org/2000/svg" width="20" height="20" fill="none" viewBox="0 0 20 20">
    <path fill="#a060f6" d="M7.6 9.889c.88 0 1.6.692 1.6 1.555 0 .86-.717 1.556-1.6 1.556S6 12.303 6 11.444 6.716 9.89 7.6 9.89m4.8 0c.88 0 1.6.692 1.6 1.555 0 .86-.716 1.556-1.6 1.556-.883 0-1.6-.697-1.6-1.556 0-.863.712-1.555 1.6-1.555m-2.3-3.885a5 5 0 0 0 1.239 2.4A1.61 1.61 0 0 1 10 9.111c-.884 0-1.6-.696-1.6-1.555C8.4 6.692 9.112 6 10 6q.05 0 .1.004" className="fillStrong"/>
    <path fill="#521094" d="M10 2q.486 0 .957.059a5 5 0 0 0-.86 1.955L10 4.012A5.994 5.994 0 0 0 4.012 10 5.995 5.995 0 0 0 10 15.988 5.995 5.995 0 0 0 15.988 10l-.003-.099a5 5 0 0 0 1.954-.858Q18 9.514 18 10a8 8 0 1 1-8-8m5-1a4 4 0 1 1-4 4c0-2.22 1.78-4 4-4m.339 2.05a.67.67 0 0 0-.727.145l-.667.667A.666.666 0 0 0 14.417 5v1.333a.667.667 0 1 0 1.333 0V3.667a.67.67 0 0 0-.411-.616" className="fill"/>
</svg>
